storage/app/icons/phosphoricons/thin/desk-thin.svg

<svg xmlns="http://www.w3.org/2000/svg" fill="currentColor" viewBox="0 0 256 256"><path d="M248 68H8a4 4 0 0 0 0 8h12v116a4 4 0 0 0 8 0v-52h200v52a4 4 0 0 0 8 0V76h12a4 4 0 0 0 0-8M28 76h96v56H28Zm200 56h-96V76h96ZM92 104a4 4 0 0 1-4 4H64a4 4 0 0 1 0-8h24a4 4 0 0 1 4 4m72 0a4 4 0 0 1 4-4h24a4 4 0 0 1 0 8h-24a4 4 0 0 1-4-4"/></svg>

<svg xmlns="http://www.w3.org/2000/svg" viewBox="0 0 256 256" fill="currentColor"><path d="M248,68H8a4,4,0,0,0,0,8H20V192a4,4,0,0,0,8,0V140H228v52a4,4,0,0,0,8,0V76h12a4,4,0,0,0,0-8ZM28,76h96v56H28Zm200,56H132V76h96ZM92,104a4,4,0,0,1-4,4H64a4,4,0,0,1,0-8H88A4,4,0,0,1,92,104Zm72,0a4,4,0,0,1,4-4h24a4,4,0,0,1,0,8H168A4,4,0,0,1,164,104Z"/></svg>
